src/main/resources/icons/AllIcons/actions/regexSelected.svg

<!-- Copyright 2000-2021 JetBrains s.r.o. Use of this source code is governed by the Apache 2.0 license that can be found in the LICENSE file. -->
<svg xmlns="http://www.w3.org/2000/svg" width="16" height="16" viewBox="0 0 16 16">
  <g fill="none" fill-rule="evenodd">
    <rect width="2" height="2" x="3" y="11" fill="#40B6E0"/>
    <path fill="#40B6E0" d="M9.8339746,5.61435935 L12.0980762,4.30717968 L12.8980762,5.69282032 L10.6339746,7 L12.8980762,8.30717968 L12.0980762,9.69282032 L9.8339746,8.38564065 L9.8339746,11 L8.2339746,11 L8.2339746,8.38564065 L5.96987298,9.69282032 L5.16987298,8.30717968 L7.4339746,7 L5.16987298,5.69282032 L5.96987298,4.30717968 L8.2339746,5.61435935 L8.2339746,3 L9.8339746,3 L9.8339746,5.61435935 Z"/>
  </g>
</svg>

<svg xmlns="http://www.w3.org/2000/svg" width="16" height="16" viewBox="0 0 16 16"><rect id="frame" width="16" height="16" fill="none"/><g fill="#40B6E0" fill-rule="evenodd"><path d="M3 11h2v2H3z"/><path d="M9.834 5.614l2.264-1.307.8 1.386L10.634 7l2.264 1.307-.8 1.386-2.264-1.307V11h-1.6V8.386L5.97 9.693l-.8-1.386L7.434 7 5.17 5.693l.8-1.386 2.264 1.307V3h1.6v2.614z"/></g></svg>
